X:0879
T:Bonny Bell.
M:3/4
L:1/8
Q:1/4=90 "Slow"
I: :: :|
Z:Jack Campin * www.campin.me.uk * 2009
K:G
D|GD  G2 B>c    |dB d2 ge |dc B2 (AG)|BG  E3
D|GD  G2 B>c    |dB d2 ge |dc B2  AG |A>B G3:|
G|B>c d2 d(e/f/)|gf e2 d>d|eg B2 (AG)|AG  E3
D|GD  G2 G(A/B/)|dB d2 ge |dc B2  AG |A>B G3:|

